X: 213
T: Song of the Moccasin Game (c)
C: Teton Sioux band 1911-1914
N: Derived from sioux208.krn
O: South Dakota, U.S.A.
N: Teton Sioux Music by Frances Densmore, 1918
Z: transcribed to **kern format by Craig Sapp
L: 1/4
M: 2/4
Q: 1/4=58
K: C clef=bass
%%linebreak <none>
EE | 
DD | 
(E/ C/)A, | 
A,A, | 
A,A, | 
A,/< A,/-A, | 
A,G, | 
G,z | 
A,A, | 
A,A, | 
A,/< A,/A, | 
A,/< A,/-A, :|]  



